public/toggle.svg

<?xml version="1.0" encoding="UTF-8"?> <svg xmlns="http://www.w3.org/2000/svg" width="144" height="56" viewBox="0 0 144 56" fill="none"><g clip-path="url(#clip0)"><path d="M109.553 0.983032C107.752 0.983032 106.311 2.50681 106.311 4.34684V33.7011C106.311 35.5699 107.779 37.0649 109.553 37.0649C111.354 37.0649 112.795 35.5412 112.795 33.7011V4.34684C112.823 2.47806 111.354 0.983032 109.553 0.983032Z" fill="black"></path><path d="M60.4745 8.22815C52.798 8.22815 46.5625 14.697 46.5625 22.6609C46.5625 30.6248 52.798 37.0937 60.4745 37.0937C63.135 37.0937 65.7123 36.2887 67.8739 34.8511V40.4862C67.8739 44.7126 64.5483 48.1626 60.4745 48.1626C56.4007 48.1626 53.0751 44.7126 53.0751 40.4862C53.0751 40.0837 53.1028 39.71 53.1582 39.3362C53.4354 37.4962 52.216 35.7711 50.4423 35.5124C48.6687 35.2249 47.0059 36.4899 46.7565 38.3299C46.6456 39.0487 46.5902 39.7675 46.5902 40.4862C46.5902 48.4501 52.8257 54.919 60.5022 54.919C68.1788 54.919 74.4142 48.4501 74.4142 40.4862V22.6609C74.4142 22.6322 74.4142 22.6034 74.4142 22.5746C74.3311 14.6395 68.1233 8.22815 60.4745 8.22815ZM67.5968 24.7885C67.5414 24.9897 67.4859 25.1622 67.4028 25.3635C66.322 28.3248 63.523 30.3086 60.4745 30.3086C56.4007 30.3086 53.0751 26.8585 53.0751 22.6322C53.0751 18.4058 56.4007 14.9557 60.4745 14.9557C64.5483 14.9557 67.8739 18.4058 67.8739 22.6322C67.8739 23.3797 67.7908 24.0984 67.5968 24.7885Z" fill="black"></path><path d="M89.9335 8.22815C82.2569 8.22815 76.0215 14.697 76.0215 22.6609C76.0215 30.6248 82.2569 37.0937 89.9335 37.0937C92.594 37.0937 95.1713 36.2887 97.3329 34.8511V40.4862C97.3329 44.7126 94.0073 48.1626 89.9335 48.1626C85.8597 48.1626 82.5341 44.7126 82.5341 40.4862C82.5341 40.1125 82.5618 39.71 82.6172 39.3362C82.8943 37.4962 81.675 35.7711 79.9013 35.5124C78.1277 35.2249 76.4649 36.4899 76.2155 38.3299C76.1046 39.0487 76.0492 39.7675 76.0492 40.4862C76.0492 48.4501 82.2847 54.919 89.9612 54.919C97.6378 54.919 103.873 48.4501 103.873 40.4862V22.6609C103.873 22.6322 103.873 22.6034 103.873 22.5746C103.79 14.6395 97.5546 8.22815 89.9335 8.22815ZM97.0281 24.7885C96.9726 24.9897 96.9172 25.191 96.8341 25.3635C95.7533 28.3248 92.9542 30.3086 89.9058 30.3086C85.8319 30.3086 82.5064 26.8585 82.5064 22.6322C82.5064 18.4058 85.8319 14.9557 89.9058 14.9557C93.9796 14.9557 97.3052 18.4058 97.3052 22.6322C97.3329 23.3797 97.2221 24.0984 97.0281 24.7885Z" fill="black"></path><path d="M31.0421 8.22876C23.421 8.22876 17.2133 14.6114 17.1301 22.489C17.1301 22.5465 17.1301 22.604 17.1301 22.6615V25.0191C17.1301 27.9516 14.8299 30.3667 11.9755 30.3667C9.12102 30.3667 6.82082 27.9804 6.82082 25.0191V14.9851H14.7191C16.5204 14.9851 17.9615 13.4614 17.9615 11.6213C17.9615 9.78128 16.4927 8.25751 14.7191 8.25751H6.82082V4.40494C6.82082 2.53616 5.35202 1.04114 3.57838 1.04114C1.80474 1.04114 0.335938 2.56492 0.335938 4.40494V25.0478C0.335938 31.718 5.54602 37.1231 11.9755 37.1231C15.6059 37.1231 18.8483 35.3693 21.01 32.6667C23.5319 35.398 27.1069 37.1231 31.0421 37.1231C38.7187 37.1231 44.9542 30.6542 44.9542 22.6903C44.9542 14.7264 38.691 8.22876 31.0421 8.22876ZM31.0421 30.3379C26.9683 30.3379 23.6427 26.8878 23.6427 22.6615C23.6427 18.4352 26.9683 14.9851 31.0421 14.9851C35.116 14.9851 38.4416 18.4352 38.4416 22.6615C38.4416 26.8878 35.116 30.3379 31.0421 30.3379Z" fill="black"></path><path d="M125.931 22.6321C125.931 24.5009 127.4 25.9959 129.174 25.9959H139.843C141.645 25.9959 143.086 24.4721 143.086 22.6321C143.086 22.6034 143.086 22.5746 143.086 22.5459C143.03 14.6395 136.823 8.19934 129.174 8.19934C121.497 8.19934 115.262 14.6682 115.262 22.6321C115.262 30.596 121.497 37.0649 129.174 37.0649C132.97 37.0649 136.49 35.5123 139.123 32.6948C140.37 31.3723 140.342 29.216 139.067 27.9222C137.793 26.6284 135.714 26.6572 134.467 27.9797C133.054 29.4747 131.169 30.3085 129.174 30.3085C125.1 30.3085 121.774 26.8584 121.774 22.6321C121.774 18.4058 125.1 14.9557 129.174 14.9557C132.084 14.9557 134.606 16.7095 135.825 19.2683H129.174C127.4 19.2683 125.931 20.7921 125.931 22.6321Z" fill="black"></path></g><defs><clipPath id="clip0"><rect width="143" height="54.051" fill="white" transform="translate(0.335938 0.983032)"></rect></clipPath></defs></svg>

<svg xmlns="http://www.w3.org/2000/svg" fill="none" viewBox="0 0 144 56"><g fill="#000" clip-path="url(#a)"><path d="M109.553.983c-1.801 0-3.242 1.524-3.242 3.364V33.7c0 1.869 1.468 3.364 3.242 3.364 1.801 0 3.242-1.524 3.242-3.364V4.347c.028-1.869-1.441-3.364-3.242-3.364zM60.474 8.228c-7.676 0-13.911 6.469-13.911 14.433 0 7.964 6.235 14.433 13.911 14.433 2.661 0 5.238-.805 7.4-2.243v5.635c0 4.227-3.326 7.677-7.4 7.677-4.073 0-7.399-3.45-7.399-7.677 0-.402.028-.776.083-1.15.277-1.84-.942-3.565-2.716-3.824-1.773-.287-3.436.978-3.685 2.818-.111.719-.167 1.438-.167 2.156 0 7.964 6.236 14.433 13.912 14.433 7.677 0 13.912-6.469 13.912-14.433V22.575c-.083-7.935-6.29-14.347-13.94-14.347zm7.123 16.56c-.056.202-.111.374-.194.575-1.081 2.962-3.88 4.946-6.929 4.946-4.073 0-7.399-3.45-7.399-7.677 0-4.226 3.326-7.676 7.4-7.676 4.073 0 7.399 3.45 7.399 7.676 0 .748-.083 1.466-.277 2.156zM89.933 8.228c-7.676 0-13.912 6.469-13.912 14.433 0 7.964 6.236 14.433 13.912 14.433 2.661 0 5.238-.805 7.4-2.243v5.635c0 4.227-3.326 7.677-7.4 7.677-4.073 0-7.399-3.45-7.399-7.677 0-.373.028-.776.083-1.15.277-1.84-.942-3.565-2.716-3.824-1.773-.287-3.436.978-3.685 2.818-.111.719-.167 1.438-.167 2.156 0 7.964 6.236 14.433 13.912 14.433 7.677 0 13.912-6.469 13.912-14.433V22.575c-.083-7.935-6.318-14.347-13.94-14.347zm7.095 16.56c-.055.202-.11.403-.194.575-1.08 2.962-3.88 4.946-6.928 4.946-4.074 0-7.4-3.45-7.4-7.677 0-4.226 3.326-7.676 7.4-7.676s7.4 3.45 7.4 7.676a6.976 6.976 0 01-.278 2.156zM31.042 8.229c-7.621 0-13.829 6.382-13.912 14.26V25.019c0 2.933-2.3 5.348-5.154 5.348-2.855 0-5.155-2.387-5.155-5.348V14.985h7.898c1.801 0 3.243-1.524 3.243-3.364 0-1.84-1.47-3.363-3.243-3.363H6.821V4.405c0-1.869-1.469-3.364-3.243-3.364-1.773 0-3.242 1.524-3.242 3.364v20.643c0 6.67 5.21 12.075 11.64 12.075 3.63 0 6.872-1.754 9.034-4.456 2.522 2.731 6.097 4.456 10.032 4.456 7.677 0 13.912-6.469 13.912-14.433 0-7.964-6.263-14.461-13.912-14.461zm0 22.109c-4.074 0-7.4-3.45-7.4-7.677 0-4.226 3.326-7.676 7.4-7.676s7.4 3.45 7.4 7.677c0 4.226-3.326 7.676-7.4 7.676zM125.931 22.632c0 1.869 1.469 3.364 3.243 3.364h10.669c1.802 0 3.243-1.524 3.243-3.364v-.086c-.056-7.906-6.263-14.347-13.912-14.347-7.677 0-13.912 6.47-13.912 14.433 0 7.964 6.235 14.433 13.912 14.433 3.796 0 7.316-1.553 9.949-4.37 1.247-1.323 1.219-3.479-.056-4.773a3.187 3.187 0 00-4.6.058c-1.413 1.495-3.298 2.328-5.293 2.328-4.074 0-7.4-3.45-7.4-7.676s3.326-7.676 7.4-7.676c2.91 0 5.432 1.753 6.651 4.312h-6.651c-1.774 0-3.243 1.524-3.243 3.364z"/></g><defs><clipPath id="a"><path fill="#fff" d="M0 0h143v54.051H0z" transform="translate(.336 .983)"/></clipPath></defs></svg>
